source/images/bg-insurance.svg

<svg width="20" height="19" viewBox="0 0 20 19" fill="none" xmlns="http://www.w3.org/2000/svg">
<path d="M9.34254 16.3751H4.96411C4.81846 16.3751 4.70044 16.4931 4.70044 16.6388C4.70044 16.7844 4.81846 16.9025 4.96411 16.9025H9.34254C9.48819 16.9025 9.60621 16.7844 9.60621 16.6388C9.60621 16.4931 9.48819 16.3751 9.34254 16.3751Z" fill="#3634E3" stroke="#3634E3" stroke-width="0.2"/>
<path d="M16.1798 7.41693C16.3254 7.41693 16.4434 7.29891 16.4434 7.15326V2.50479C16.4434 2.10271 16.287 1.72478 16.0026 1.44044C15.7178 1.15641 15.34 1 14.9386 1H2.50528C1.67528 1 1 1.67504 1 2.50479V5.04008C1 5.18574 1.11802 5.30376 1.26367 5.30376H2.69168C2.83734 5.30376 2.95535 5.18574 2.95535 5.04008C2.95535 4.89443 2.83734 4.77641 2.69168 4.77641H1.52734V2.50479C1.52734 1.96585 1.96606 1.52734 2.50528 1.52734C2.76604 1.52734 3.0116 1.62909 3.19653 1.81355C3.38106 1.99805 3.4827 2.24358 3.4827 2.50479V5.04008V18.1C3.4827 18.2456 3.60072 18.3637 3.74637 18.3637H16.1797C16.3253 18.3637 16.4433 18.2456 16.4433 18.1V17.1963C16.4433 17.0507 16.3253 16.9327 16.1797 16.9327C16.034 16.9327 15.916 17.0507 15.916 17.1963V17.8363H4.01004V5.04008V2.50479C4.01004 2.48085 4.00941 2.45698 4.00832 2.43321C4.00797 2.42534 4.00726 2.4175 4.00677 2.40962C4.00579 2.39377 4.00477 2.37788 4.00329 2.36213C4.00245 2.35292 4.00129 2.34381 4.00027 2.33464C3.99865 2.32022 3.997 2.30584 3.995 2.29157C3.99366 2.28201 3.99208 2.27248 3.99057 2.26295C3.98835 2.24917 3.98603 2.23546 3.98343 2.22178C3.9816 2.21212 3.97963 2.20248 3.97763 2.19285C3.97482 2.17939 3.97183 2.16599 3.96863 2.15263C3.96634 2.14311 3.96402 2.13358 3.96156 2.12412C3.95808 2.11069 3.95435 2.09733 3.95049 2.08404C3.94782 2.0749 3.94521 2.06573 3.9424 2.05662C3.93815 2.04287 3.93354 2.02927 3.9289 2.0157C3.92598 2.00723 3.92321 1.99872 3.92015 1.99028C3.91477 1.97544 3.90897 1.96078 3.90313 1.94616C3.90035 1.9392 3.89775 1.93213 3.89487 1.92521C3.88643 1.90496 3.87754 1.88488 3.86819 1.86502C3.86762 1.86382 3.86713 1.86256 3.86657 1.86136C3.85659 1.84023 3.846 1.81939 3.83503 1.79871C3.83173 1.79249 3.82814 1.78641 3.82473 1.78022C3.81689 1.76598 3.80898 1.75178 3.80065 1.73775C3.79608 1.73005 3.79123 1.72253 3.78652 1.7149C3.77892 1.70263 3.7713 1.6904 3.76332 1.6783C3.75797 1.67022 3.75245 1.66224 3.74693 1.65426C3.73909 1.6429 3.73122 1.63158 3.72306 1.6204C3.71712 1.61228 3.71107 1.60427 3.70499 1.59625C3.69676 1.58546 3.68843 1.57473 3.67992 1.56415C3.67349 1.55617 3.66702 1.54823 3.66041 1.54035C3.65683 1.53606 3.65342 1.53163 3.6498 1.52738H14.9387C15.1994 1.52738 15.445 1.62912 15.6299 1.81359C15.8145 1.99812 15.9161 2.24362 15.9161 2.50483V7.15326C15.9161 7.29891 16.0341 7.41693 16.1798 7.41693Z" fill="#3634E3" stroke="#3634E3" stroke-width="0.2"/>
<path d="M18.9928 10.1774C18.9874 10.0538 18.8967 9.9505 18.7747 9.92919C17.8778 9.77268 17.1363 9.10534 16.8857 8.22914C16.8534 8.11598 16.7499 8.03796 16.6322 8.03796H12.3298C12.2121 8.03796 12.1087 8.11598 12.0763 8.22914C12.0161 8.43962 11.9273 8.63791 11.8151 8.82012H4.96411C4.81846 8.82012 4.70044 8.93814 4.70044 9.08379C4.70044 9.22944 4.81846 9.34746 4.96411 9.34746H11.3759C11.0468 9.64425 10.6366 9.85083 10.1873 9.92923C10.0654 9.9505 9.97461 10.0538 9.9692 10.1775C9.96442 10.287 9.96199 10.3952 9.96199 10.499C9.96199 10.7819 9.97848 11.0621 10.0104 11.3385H4.96411C4.81846 11.3385 4.70044 11.4566 4.70044 11.6022C4.70044 11.7478 4.81846 11.8659 4.96411 11.8659H10.0908C10.224 12.5658 10.4581 13.2357 10.7807 13.857H4.96411C4.81846 13.857 4.70044 13.975 4.70044 14.1206C4.70044 14.2663 4.81846 14.3843 4.96411 14.3843H11.0831C11.8542 15.6073 12.9883 16.599 14.3771 17.1944C14.4102 17.2086 14.4456 17.2157 14.481 17.2157C14.5163 17.2157 14.5517 17.2086 14.5849 17.1944C17.267 16.0445 19 13.4164 19 10.4989C19 10.3951 18.9976 10.2869 18.9928 10.1774ZM14.481 16.664C13.2017 16.0903 12.1628 15.1508 11.4659 14.0002C11.4601 13.989 11.4536 13.9783 11.4463 13.9681C10.8322 12.9414 10.4893 11.7488 10.4893 10.499C10.4893 10.4675 10.4896 10.4356 10.4901 10.4034C11.1696 10.231 11.7613 9.81596 12.1602 9.25339C12.1699 9.24185 12.1785 9.22941 12.1861 9.2163C12.3236 9.01594 12.437 8.79765 12.5214 8.56534H16.4407C16.77 9.47185 17.5383 10.1666 18.4719 10.4034C18.4724 10.4356 18.4727 10.4675 18.4727 10.499C18.4727 13.1674 16.9098 15.5748 14.481 16.664Z" fill="#3634E3" stroke="#3634E3" stroke-width="0.2"/>
<path d="M16.3533 11.3259H15.4543V10.4269C15.4543 10.2812 15.3363 10.1632 15.1906 10.1632H13.7713C13.6257 10.1632 13.5076 10.2812 13.5076 10.4269V11.3259H12.6086C12.4629 11.3259 12.3449 11.4439 12.3449 11.5896V13.0089C12.3449 13.1545 12.4629 13.2726 12.6086 13.2726H13.5076V14.1716C13.5076 14.3172 13.6256 14.4353 13.7713 14.4353H15.1906C15.3362 14.4353 15.4543 14.3172 15.4543 14.1716V13.2726H16.3533C16.4989 13.2726 16.617 13.1545 16.617 13.0089V11.5896C16.617 11.4439 16.4989 11.3259 16.3533 11.3259ZM15.1906 12.7452C15.045 12.7452 14.927 12.8632 14.927 13.0089V13.9079H14.035V13.0089C14.035 12.8632 13.917 12.7452 13.7713 12.7452H12.8723V11.8532H13.7713C13.9169 11.8532 14.0349 11.7352 14.0349 11.5896V10.6906H14.9269V11.5896C14.9269 11.7352 15.045 11.8532 15.1906 11.8532H16.0896V12.7452H15.1906Z" fill="#3634E3" stroke="#3634E3" stroke-width="0.2"/>
<path d="M7.32264 2.29419C5.87677 2.29415 4.70044 3.47048 4.70044 4.91635C4.70044 5.8437 5.19829 6.71118 5.99946 7.1801C6.3988 7.41438 6.85636 7.53824 7.32264 7.53824C7.38093 7.53824 7.43908 7.5363 7.49698 7.53247C7.90236 7.50558 8.29633 7.38513 8.6456 7.18027C9.44699 6.71118 9.94484 5.8437 9.94484 4.91639C9.94484 3.47052 8.76851 2.29419 7.32264 2.29419ZM8.24879 6.79542C8.24619 6.79668 8.24356 6.79788 8.24095 6.79918C8.21002 6.8143 8.17873 6.82864 8.14712 6.84218C8.14382 6.84358 8.14055 6.84513 8.13721 6.84654C8.10472 6.86025 8.07185 6.87294 8.03874 6.88496C8.03276 6.88714 8.02678 6.88932 8.02077 6.89147C7.98818 6.90296 7.95527 6.91368 7.92216 6.92356C7.91636 6.92529 7.91049 6.92694 7.90465 6.92859C7.87034 6.93847 7.83581 6.94775 7.80101 6.95587C7.79893 6.95636 7.79679 6.95675 7.79472 6.95724C7.76054 6.96512 7.72609 6.97201 7.6915 6.9782C7.68682 6.97904 7.68218 6.97999 7.6775 6.98076C7.64302 6.98667 7.60832 6.99156 7.57351 6.99574C7.56697 6.99655 7.5604 6.99729 7.55383 6.99802C7.5192 7.00186 7.48443 7.00492 7.44955 7.00702C7.44393 7.00738 7.4383 7.00755 7.43268 7.00787C7.39611 7.0098 7.35945 7.01103 7.32267 7.01103C7.28586 7.01086 7.2492 7.00963 7.21263 7.00773C7.20701 7.00745 7.20138 7.00724 7.19579 7.00688C7.16092 7.00477 7.12619 7.00172 7.09156 6.99792C7.08498 6.99718 7.07841 6.99641 7.07183 6.99563C7.03706 6.99145 7.0024 6.98656 6.96795 6.98066C6.9632 6.97985 6.95845 6.9789 6.95371 6.97806C6.91936 6.97194 6.88515 6.96508 6.85119 6.95724C6.84887 6.95672 6.84652 6.95626 6.8442 6.9557C6.8096 6.94761 6.77526 6.9384 6.74115 6.92859C6.73511 6.92683 6.72902 6.92515 6.72298 6.92335C6.69007 6.91354 6.65741 6.90293 6.62503 6.8915C6.61874 6.88929 6.61245 6.88697 6.60615 6.88468C6.57332 6.87273 6.54069 6.86018 6.50849 6.84657C6.50483 6.84502 6.50121 6.84334 6.49756 6.84175C6.46641 6.8284 6.43558 6.81426 6.4051 6.79939C6.40228 6.79802 6.39944 6.79672 6.39662 6.79535V6.62677C6.39662 6.35111 6.52002 6.09226 6.72709 5.91802C6.72976 5.91982 6.73261 5.92129 6.73532 5.92305C6.75156 5.9336 6.76808 5.94362 6.78482 5.95325C6.79006 5.95624 6.79526 5.9593 6.80053 5.96222C6.82029 5.97311 6.84033 5.98349 6.86069 5.99312C6.86494 5.99512 6.8693 5.99692 6.87359 5.99888C6.8906 6.00665 6.90779 6.01393 6.92516 6.02079C6.93142 6.02325 6.93768 6.02574 6.94397 6.0281C6.96482 6.03587 6.98584 6.04315 7.00718 6.04961C7.01143 6.05092 7.01576 6.05197 7.02005 6.0532C7.03812 6.05844 7.05633 6.06315 7.07472 6.06744C7.08164 6.06906 7.08857 6.07064 7.09553 6.07215C7.11736 6.07679 7.1393 6.08097 7.16152 6.08428C7.16517 6.08481 7.16886 6.08512 7.17252 6.08565C7.192 6.08832 7.21161 6.09043 7.23134 6.09208C7.23861 6.09268 7.24593 6.09324 7.25327 6.0937C7.27437 6.09504 7.29557 6.09588 7.31687 6.09602C7.31884 6.09602 7.32077 6.09623 7.32274 6.09623C7.32468 6.09623 7.32658 6.09602 7.32851 6.09602C7.34985 6.09592 7.37108 6.09504 7.39221 6.0937C7.39942 6.09324 7.40663 6.09272 7.4138 6.09212C7.43422 6.09043 7.45458 6.08829 7.47479 6.08547C7.47778 6.08505 7.48077 6.08477 7.48376 6.08435C7.50605 6.08104 7.52806 6.07683 7.54999 6.07218C7.55664 6.07078 7.56328 6.06927 7.56989 6.06772C7.58954 6.06315 7.60906 6.05812 7.62836 6.0525C7.63131 6.05165 7.6343 6.05095 7.63725 6.05004C7.65887 6.0435 7.68014 6.03611 7.70124 6.02824C7.70735 6.02595 7.71343 6.02356 7.71952 6.02117C7.73783 6.01397 7.75594 6.00634 7.7738 5.99815C7.77714 5.9966 7.78055 5.99523 7.78389 5.99368C7.80414 5.98415 7.824 5.97382 7.84362 5.96299C7.84956 5.95972 7.85543 5.95635 7.8613 5.95297C7.87747 5.94369 7.8934 5.93399 7.90911 5.92383C7.91224 5.92179 7.91555 5.92006 7.91868 5.91799C7.939 5.93508 7.95865 5.95311 7.97753 5.97202C8.15247 6.14693 8.24879 6.37949 8.24879 6.62684V6.79542ZM6.76703 5.01307V4.53526C6.76703 4.22891 7.01629 3.97965 7.32264 3.97965C7.62899 3.97965 7.87825 4.22891 7.87825 4.53526V5.01307C7.87825 5.16051 7.82122 5.29935 7.71864 5.40295L7.71558 5.40601C7.70401 5.41758 7.69188 5.42833 7.67947 5.43874C7.67761 5.44032 7.67585 5.44208 7.67395 5.44363C7.66263 5.45291 7.65082 5.46138 7.6389 5.46964C7.63585 5.47179 7.63296 5.47418 7.62983 5.47625C7.61855 5.48377 7.60681 5.49049 7.59506 5.4971C7.59109 5.49935 7.58729 5.50192 7.58325 5.50406C7.57154 5.51028 7.55945 5.5157 7.54736 5.52104C7.54307 5.52294 7.53892 5.52519 7.53456 5.52698C7.52159 5.53233 7.50826 5.53683 7.4949 5.54115C7.49121 5.54235 7.48766 5.54389 7.48397 5.54502C7.46829 5.54973 7.45236 5.5536 7.43623 5.55694C7.43472 5.55725 7.43324 5.55774 7.43173 5.55806C7.39618 5.56509 7.35966 5.56871 7.3226 5.56871C7.22838 5.56871 7.13786 5.54533 7.05735 5.50149C7.0102 5.47579 6.96643 5.44313 6.92748 5.40386C6.92745 5.40383 6.92741 5.40379 6.92738 5.40376C6.82402 5.29917 6.76703 5.16044 6.76703 5.01307ZM8.76334 6.43595C8.72217 6.12007 8.57937 5.82802 8.3504 5.59902C8.3261 5.57476 8.301 5.55145 8.27516 5.52906C8.36024 5.37244 8.40559 5.1962 8.40559 5.01307V4.53526C8.40559 3.93813 7.9198 3.45231 7.32264 3.45231C6.72551 3.45231 6.23969 3.9381 6.23969 4.53526V5.01307C6.23969 5.1963 6.28511 5.37265 6.37029 5.52937C6.10352 5.76119 5.92873 6.08389 5.88194 6.43602C5.4705 6.04452 5.22778 5.49499 5.22778 4.91635C5.22778 3.76126 6.16751 2.8215 7.32264 2.8215C8.47773 2.8215 9.41749 3.76126 9.41749 4.91635C9.41749 5.49495 9.17481 6.04438 8.76334 6.43595Z" fill="#3634E3" stroke="#3634E3" stroke-width="0.2"/>
<path d="M14.962 3.67957H10.9404C10.7948 3.67957 10.6767 3.79758 10.6767 3.94324V5.89001C10.6767 6.03567 10.7948 6.15369 10.9404 6.15369H14.962C15.1076 6.15369 15.2257 6.03567 15.2257 5.89001V3.94324C15.2257 3.79758 15.1076 3.67957 14.962 3.67957ZM14.6983 5.62634H11.204V4.20691H14.6983V5.62634V5.62634Z" fill="#3634E3" stroke="#3634E3" stroke-width="0.2"/>
</svg>

<svg width="20" height="19" fill="none" xmlns="http://www.w3.org/2000/svg"><path d="M9.343 16.375H4.964a.264.264 0 100 .527h4.379a.264.264 0 000-.527z" fill="#3634E3" stroke="#3634E3" stroke-width=".2"/><path d="M16.18 7.417a.264.264 0 00.263-.264V2.505c0-.402-.156-.78-.44-1.065A1.497 1.497 0 0014.939 1H2.505C1.675 1 1 1.675 1 2.505V5.04c0 .146.118.264.264.264h1.428a.264.264 0 100-.528H1.527V2.505a.979.979 0 011.956 0V18.1c0 .146.118.264.263.264H16.18a.264.264 0 00.263-.264v-.904a.264.264 0 10-.527 0v.64H4.01V2.505c0-.024 0-.048-.002-.072l-.001-.023a1.494 1.494 0 00-.004-.048c0-.01-.002-.018-.003-.027a1.587 1.587 0 00-.005-.043l-.004-.029a1.487 1.487 0 00-.04-.179l-.009-.027a1.45 1.45 0 00-.013-.041L3.92 1.99a1.466 1.466 0 00-.017-.044l-.008-.02a1.46 1.46 0 00-.027-.061l-.001-.004a1.51 1.51 0 00-.032-.062l-.01-.019a1.5 1.5 0 00-.024-.042l-.014-.023a1.52 1.52 0 00-.127-.175l-.01-.013h11.289c.26 0 .506.102.69.287a.97.97 0 01.287.69v4.65c0 .145.118.263.264.263z" fill="#3634E3" stroke="#3634E3" stroke-width=".2"/><path d="M18.993 10.177a.264.264 0 00-.218-.248 2.407 2.407 0 01-1.89-1.7.264.264 0 00-.253-.191H12.33a.264.264 0 00-.254.191 2.37 2.37 0 01-.26.591H4.963a.264.264 0 100 .527h6.412c-.33.297-.74.504-1.189.582a.264.264 0 00-.218.248 7.411 7.411 0 00.041 1.162H4.964a.264.264 0 000 .527h5.127c.133.7.367 1.37.69 1.991H4.964a.264.264 0 100 .527h6.12a7.278 7.278 0 003.293 2.81.264.264 0 00.208 0 7.277 7.277 0 004.408-7.017zm-4.512 6.487a6.75 6.75 0 01-3.99-6.26 2.943 2.943 0 002.03-1.839h3.92a2.942 2.942 0 002.03 1.838l.002.096a6.75 6.75 0 01-3.992 6.165z" fill="#3634E3" stroke="#3634E3" stroke-width=".2"/><path d="M16.353 11.326h-.899v-.9a.264.264 0 00-.263-.263h-1.42a.264.264 0 00-.263.264v.899h-.9a.264.264 0 00-.263.264v1.419c0 .146.118.264.264.264h.899v.899c0 .145.118.263.263.263h1.42a.264.264 0 00.263-.263v-.9h.9a.264.264 0 00.263-.263v-1.42a.264.264 0 00-.264-.263zm-1.162 1.42a.264.264 0 00-.264.263v.899h-.892v-.9a.264.264 0 00-.264-.263h-.899v-.892h.9a.264.264 0 00.263-.263v-.9h.892v.9c0 .145.118.263.264.263h.899v.892h-.9zM7.323 2.294A2.625 2.625 0 004.7 4.916c0 .928.498 1.795 1.3 2.264a2.617 2.617 0 002.646 0 2.633 2.633 0 001.299-2.264 2.625 2.625 0 00-2.622-2.622zm.926 4.501L8.24 6.8c-.031.015-.062.03-.094.043l-.01.005a2.07 2.07 0 01-.098.038l-.018.006a2.119 2.119 0 01-.099.033l-.017.005-.104.027-.006.001a2.128 2.128 0 01-.104.021l-.013.003a2.092 2.092 0 01-.228.026h-.017a2.087 2.087 0 01-.22 0h-.017a2.14 2.14 0 01-.228-.026l-.014-.003a2.07 2.07 0 01-.103-.02l-.007-.002a2.117 2.117 0 01-.103-.027l-.018-.006a2.075 2.075 0 01-.098-.032l-.019-.006a2.064 2.064 0 01-.098-.038l-.01-.005a2.076 2.076 0 01-.093-.043l-.008-.004v-.168c0-.276.123-.535.33-.709l.008.005.05.03.016.01.06.03.013.006.051.022.019.007.063.022.013.003a1.064 1.064 0 00.142.031l.01.002a1.121 1.121 0 00.145.01h.012a1.086 1.086 0 00.146-.01l.009-.002a1.093 1.093 0 00.144-.031l.01-.003.063-.022.019-.007.054-.023.01-.004a1.041 1.041 0 00.125-.07l.01-.006a.92.92 0 01.33.709v.168zM6.767 5.013v-.478a.556.556 0 011.111 0v.478a.551.551 0 01-.16.39l-.002.003a.556.556 0 01-.037.033l-.005.005a.54.54 0 01-.035.026l-.01.006a.536.536 0 01-.034.021l-.012.007a.549.549 0 01-.036.017l-.012.006a.537.537 0 01-.04.014l-.011.004a.561.561 0 01-.048.012l-.004.001a.562.562 0 01-.505-.154s0 0 0 0a.552.552 0 01-.16-.39zm1.996 1.423a1.442 1.442 0 00-.488-.907 1.08 1.08 0 00.13-.516v-.478a1.084 1.084 0 00-2.165 0v.478c0 .183.045.36.13.516a1.457 1.457 0 00-.488.907 2.104 2.104 0 01-.654-1.52c0-1.155.94-2.095 2.095-2.095a2.097 2.097 0 011.44 3.615zm6.199-2.756H10.94a.264.264 0 00-.263.263V5.89c0 .146.118.264.263.264h4.022a.264.264 0 00.264-.264V3.943a.264.264 0 00-.264-.263zm-.264 1.946h-3.494v-1.42h3.494v1.42z" fill="#3634E3" stroke="#3634E3" stroke-width=".2"/></svg>
